_inc/images/systems/logos/megadrive-japan.svg

<svg viewBox="0 0 264 159" xmlns="http://www.w3.org/2000/svg" xml:space="preserve" style="fill-rule:evenodd;clip-rule:evenodd">
    <path d="M85.169 0v102.761h-69.22L85.169 0Z" style="fill:red;fill-rule:nonzero;stroke:#000;stroke-opacity:0;stroke-width:.78px"/>
    <path d="M143.096 0v102.761H73.875L143.096 0Z" style="fill:red;fill-rule:nonzero;stroke:#000;stroke-opacity:0;stroke-width:.78px"/>
    <path style="fill:#0a0;stroke:#000;stroke-opacity:0;stroke-width:5.22px;stroke-linecap:round" d="M158.491 2.049h33.437v101.59h-33.437z"/>
    <path d="M199.127 2.097a97.27 97.27 0 0 0-1.205-.026l-.205 34.803h.081v-.108a15.876 15.876 0 0 1 1.726-.127l7.02-34.107c-2.739-.332-5.319-.368-7.417-.435Zm12.874.967-9.857 33.729c.878.121 1.739.312 2.566.568l16.191-32.069a49.69 49.69 0 0 0-8.9-2.228Zm14.312 4.491-19.362 30.681c.647.313 1.274.672 1.87 1.064l24.874-27.317a50.346 50.346 0 0 0-7.382-4.428Zm12.035 8.244L210.52 40.59a16.395 16.395 0 0 1 1.852 1.884l32.743-19.028a50.652 50.652 0 0 0-6.767-7.647Zm9.306 11.551-34.071 16.766c.39.608.739 1.241 1.048 1.903l37.405-8.983a50.28 50.28 0 0 0-4.382-9.686Zm5.782 14.845-38.119 5.564c.391 1.174.654 2.412.768 3.689h38.472a50.739 50.739 0 0 0-1.121-9.253Zm-37.351 12.301c-.789 8.256-7.724 14.709-16.154 14.709-.726 0-1.432-.052-2.133-.145v-.703h-.081v35.141c2.887-.021 4.377-.141 6.623-.141 27.223 0 49.388-21.732 50.217-48.861h-38.472Z" style="fill:#0a0;fill-rule:nonzero;stroke:#000;stroke-opacity:0;stroke-width:5.15px;stroke-linecap:round"/>
    <path d="m0 135.231 13.092-21.706c.623-1.24 1.247-1.861 1.87-1.861h9.352v2.884l.623-1.023c.623-1.24 1.247-1.861 1.87-1.861h11.222v23.567h-7.482v-18.605l-11.221 18.605h-7.481l11.222-18.605h-3.741c-.416 0-.831.206-1.247.621L7.481 135.231H0Zm48.004-9.303v4.342h17.455v4.961H40.522v-15.504c0-.414.104-.827.312-1.241l3.429-6.201c.208-.414.623-.621 1.247-.621h19.949v4.962H50.497c-.416 0-.728.206-.935.621l-1.558 3.721h17.455l-2.494 4.96H48.004Zm27.43 4.342h12.468v-4.342h-4.988l2.494-4.96h9.975v13.024c0 .826-.416 1.239-1.247 1.239H69.2c-.832 0-1.247-.413-1.247-1.239v-14.265c0-.414.104-.827.311-1.241l3.429-6.201c.208-.414.623-.621 1.247-.621h21.196v4.962H77.927c-.415 0-.727.206-.935.621l-1.558 3.721v9.302Zm53.614 4.961h-8.728l-3.429-4.961h-9.04l-2.493-4.496v9.457h-7.481v-23.567h14.338c.624 0 1.247.621 1.871 1.861l14.962 21.706Zm-15.617-9.922-5.58-8.062c-.415-.415-.831-.621-1.246-.621h-1.247v8.683h8.073Zm29.049 5.246h9.05c.431 0 .754-.194.969-.582l2.747-5.891.162-.648-.162-.647-2.747-5.826c-.215-.431-.538-.648-.969-.648h-9.05v14.242Zm-7.756-19.42h21.654c.646 0 1.185.432 1.616 1.295l5.009 10.357.162.647-.162.648-5.009 10.357c-.431.863-.97 1.295-1.616 1.295h-21.654v-24.599Zm31.026 0h20.684c.647 0 1.185.432 1.616 1.295l3.394 7.12.161.648-.161.647-5.01 5.826 5.171 9.063h-7.756l-7.434-12.3h3.879c.431 0 .754-.108.969-.323l2.586-2.913-1.293-3.237c-.216-.431-.539-.648-.97-.648h-8.079v19.421h-7.757v-24.599Zm36.197 24.599h-7.756v-24.599h7.756v24.599Zm10.342-16.507 7.757 11.328 7.757-11.328v-8.092h7.756v9.063c0 .863-.108 1.51-.323 1.942l-8.726 13.594h-12.927l-8.726-13.594c-.217-.432-.324-1.079-.324-1.942v-9.063h7.756v8.092Zm33.612 6.797v4.531H264v5.179h-25.855V119.55c0-.431.108-.863.323-1.294l3.555-6.473c.215-.432.647-.648 1.293-.648H264v5.178h-15.513c-.431 0-.754.217-.969.648l-1.617 3.884H264l-2.585 5.179h-15.514Z" style="fill:#fff;fill-rule:nonzero"/>
    <path d="m55.625 158 1.797-2.691h9.771l2.303-3.672-2.303-2.887c-.309-.411-.758-.617-1.347-.617h-3.931l1.797-2.69h5.39c.6 0 1.105.262 1.517.785l1.264 1.598 1.712-2.775c.6-.934 1.498-1.401 2.696-1.401h3.594l-4.998 8.001L79.885 158h-5.391l-1.98-2.523-1.053 1.682c-.374.56-.861.841-1.46.841H55.625Zm27.854-8.969v-2.69h5.504l.73-1.234c.636-.971 1.554-1.457 2.752-1.457h3.594l-1.685 2.691h4.38c.599 0 1.123.317 1.573.952l3.425 4.764c.263.374.3.767.113 1.178l-2.64 3.812c-.449.636-.973.953-1.572.953h-7.188v-2.691h3.594c.598 0 1.086-.225 1.46-.673l.955-1.626c.187-.261.187-.523 0-.784l-1.798-2.578c-.327-.412-.833-.617-1.516-.617h-2.47L87.073 158h-5.391l5.616-8.969h-3.819Zm15.275-5.381h3.594l3.763 5.269-1.516 2.803-5.841-8.072Zm4.662 0h6.121l-2.864 4.483-3.257-4.483ZM118.522 158v-14.35h5.391v3.587h8.985c.6 0 1.105.318 1.517.953l2.976 4.428H132l-1.123-1.794c-.449-.598-.974-.897-1.572-.897h-5.392V158h-5.391Zm10.783-11.659-1.797-2.691h3.594l1.796 2.691h-3.593Zm4.492 0L132 143.65h3.594l1.797 2.691h-3.594Zm5.391 0v-2.691h18.87v2.691h-18.87Zm0 3.586v-2.69h18.87v2.69c0 .599-.131 1.178-.393 1.739l-2.752 5.493c-.3.56-.749.841-1.348.841h-11.681v-2.691h7.188c.599 0 1.067-.298 1.404-.897l2.191-4.485h-13.479Zm20.667-.896v-2.69h12.973c.636 0 1.122-.3 1.46-.898l.842-1.793h5.391l-1.797 3.587c-.599 1.196-1.497 1.794-2.695 1.794h-3.595V158h-5.391v-8.969h-7.188Zm39.985 6.053-1.685 2.019c-.375.598-.861.897-1.46.897h-14.377v-2.691h9.884c.478 0 .908-.298 1.292-.897l.505-.855v-7.216h-11.681v-2.691h17.971v9.865c0 .598-.15 1.121-.449 1.569Zm2.246-6.053 2.696-5.381h3.594l-2.696 5.381h-3.594Zm-.899 0v-5.381h2.696l-2.696 5.381Z" style="fill:#ccc;fill-rule:nonzero"/>
</svg>

<?xml version="1.0" encoding="UTF-8" standalone="no"?>
<!DOCTYPE svg PUBLIC "-//W3C//DTD SVG 1.1//EN" "http://www.w3.org/Graphics/SVG/1.1/DTD/svg11.dtd">
<svg width="100%" height="100%" viewBox="0 0 264 159" version="1.1" xmlns="http://www.w3.org/2000/svg" xmlns:xlink="http://www.w3.org/1999/xlink" xml:space="preserve" xmlns:serif="http://www.serif.com/" style="fill-rule:evenodd;clip-rule:evenodd;">
    <g>
        <g>
            <g>
                <path id="path3038" d="M85.169,0L85.169,102.761L15.949,102.761L85.169,0Z" style="fill:rgb(255,0,0);fill-rule:nonzero;stroke:black;stroke-opacity:0;stroke-width:0.78px;"/>
                <path id="path3038-4" d="M143.096,0L143.096,102.761L73.875,102.761L143.096,0Z" style="fill:rgb(255,0,0);fill-rule:nonzero;stroke:black;stroke-opacity:0;stroke-width:0.78px;"/>
            </g>
            <g>
                <rect id="rect3834" x="158.491" y="2.049" width="33.437" height="101.59" style="fill:rgb(0,170,0);stroke:black;stroke-opacity:0;stroke-width:5.22px;stroke-linecap:round;"/>
                <path id="path3838" d="M199.127,2.097C198.769,2.087 198.371,2.078 197.922,2.071L197.717,36.874C197.744,36.875 197.772,36.874 197.798,36.874L197.798,36.766C198.367,36.69 198.94,36.653 199.524,36.639L206.544,2.532C203.805,2.2 201.225,2.164 199.127,2.097ZM212.001,3.064L202.144,36.793C203.022,36.914 203.883,37.105 204.71,37.361L220.901,5.292C218.041,4.29 215.07,3.535 212.001,3.064ZM226.313,7.555L206.951,38.236C207.598,38.549 208.225,38.908 208.821,39.3L233.695,11.983C231.374,10.304 228.906,8.824 226.313,7.555ZM238.348,15.799L210.52,40.59C211.185,41.166 211.808,41.798 212.372,42.474L245.115,23.446C243.122,20.672 240.849,18.109 238.348,15.799ZM247.654,27.35L213.583,44.116C213.973,44.724 214.322,45.357 214.631,46.019L252.036,37.036C250.912,33.632 249.438,30.39 247.654,27.35ZM253.436,42.195L215.317,47.759C215.708,48.933 215.971,50.171 216.085,51.448L254.557,51.448C254.466,48.281 254.082,45.188 253.436,42.195ZM216.085,54.496C215.296,62.752 208.361,69.205 199.931,69.205C199.205,69.205 198.499,69.153 197.798,69.06L197.798,68.357C197.772,68.357 197.744,68.356 197.717,68.357L197.717,103.498C200.604,103.477 202.094,103.357 204.34,103.357C231.563,103.357 253.728,81.625 254.557,54.496L216.085,54.496Z" style="fill:rgb(0,170,0);fill-rule:nonzero;stroke:black;stroke-opacity:0;stroke-width:5.15px;stroke-linecap:round;"/>
            </g>
        </g>
        <g>
            <path id="text8337-2" d="M0,135.231L13.092,113.525C13.715,112.285 14.339,111.664 14.962,111.664L24.314,111.664L24.314,114.548L24.937,113.525C25.56,112.285 26.184,111.664 26.807,111.664L38.029,111.664L38.029,135.231L30.547,135.231L30.547,116.626L19.326,135.231L11.845,135.231L23.067,116.626L19.326,116.626C18.91,116.626 18.495,116.832 18.079,117.247L7.481,135.231L0,135.231ZM48.004,125.928L48.004,130.27L65.459,130.27L65.459,135.231L40.522,135.231L40.522,119.727C40.522,119.313 40.626,118.9 40.834,118.486L44.263,112.285C44.471,111.871 44.886,111.664 45.51,111.664L65.459,111.664L65.459,116.626L50.497,116.626C50.081,116.626 49.769,116.832 49.562,117.247L48.004,120.968L65.459,120.968L62.965,125.928L48.004,125.928ZM75.434,130.27L87.902,130.27L87.902,125.928L82.914,125.928L85.408,120.968L95.383,120.968L95.383,133.992C95.383,134.818 94.967,135.231 94.136,135.231L69.2,135.231C68.368,135.231 67.953,134.818 67.953,133.992L67.953,119.727C67.953,119.313 68.057,118.9 68.264,118.486L71.693,112.285C71.901,111.871 72.316,111.664 72.94,111.664L94.136,111.664L94.136,116.626L77.927,116.626C77.512,116.626 77.2,116.832 76.992,117.247L75.434,120.968L75.434,130.27ZM129.048,135.231L120.32,135.231L116.891,130.27L107.851,130.27L105.358,125.774L105.358,135.231L97.877,135.231L97.877,111.664L112.215,111.664C112.839,111.664 113.462,112.285 114.086,113.525L129.048,135.231ZM113.431,125.309L107.851,117.247C107.436,116.832 107.02,116.626 106.605,116.626L105.358,116.626L105.358,125.309L113.431,125.309Z" style="fill:white;fill-rule:nonzero;"/>
            <path id="text8339-0" d="M142.48,130.555L151.53,130.555C151.961,130.555 152.284,130.361 152.499,129.973L155.246,124.082L155.408,123.434L155.246,122.787L152.499,116.961C152.284,116.53 151.961,116.313 151.53,116.313L142.48,116.313L142.48,130.555ZM134.724,111.135L156.378,111.135C157.024,111.135 157.563,111.567 157.994,112.43L163.003,122.787L163.165,123.434L163.003,124.082L157.994,134.439C157.563,135.302 157.024,135.734 156.378,135.734L134.724,135.734L134.724,111.135ZM165.75,111.135L186.434,111.135C187.081,111.135 187.619,111.567 188.05,112.43L191.444,119.55L191.605,120.198L191.444,120.845L186.434,126.671L191.605,135.734L183.849,135.734L176.415,123.434L180.294,123.434C180.725,123.434 181.048,123.326 181.263,123.111L183.849,120.198L182.556,116.961C182.34,116.53 182.017,116.313 181.586,116.313L173.507,116.313L173.507,135.734L165.75,135.734L165.75,111.135ZM201.947,135.734L194.191,135.734L194.191,111.135L201.947,111.135L201.947,135.734ZM212.289,119.227L220.046,130.555L227.803,119.227L227.803,111.135L235.559,111.135L235.559,120.198C235.559,121.061 235.451,121.708 235.236,122.14L226.51,135.734L213.583,135.734L204.857,122.14C204.64,121.708 204.533,121.061 204.533,120.198L204.533,111.135L212.289,111.135L212.289,119.227ZM245.901,126.024L245.901,130.555L264,130.555L264,135.734L238.145,135.734L238.145,119.55C238.145,119.119 238.253,118.687 238.468,118.256L242.023,111.783C242.238,111.351 242.67,111.135 243.316,111.135L264,111.135L264,116.313L248.487,116.313C248.056,116.313 247.733,116.53 247.518,116.961L245.901,120.845L264,120.845L261.415,126.024L245.901,126.024Z" style="fill:white;fill-rule:nonzero;"/>
        </g>
        <g>
            <path id="path3065" d="M55.625,158L57.422,155.309L67.193,155.309L69.496,151.637L67.193,148.75C66.884,148.339 66.435,148.133 65.846,148.133L61.915,148.133L63.712,145.443L69.102,145.443C69.702,145.443 70.207,145.705 70.619,146.228L71.883,147.826L73.595,145.051C74.195,144.117 75.093,143.65 76.291,143.65L79.885,143.65L74.887,151.651L79.885,158L74.494,158L72.514,155.477L71.461,157.159C71.087,157.719 70.6,158 70.001,158L55.625,158Z" style="fill:rgb(204,204,204);fill-rule:nonzero;"/>
            <path id="path3067" d="M83.479,149.031L83.479,146.341L88.983,146.341L89.713,145.107C90.349,144.136 91.267,143.65 92.465,143.65L96.059,143.65L94.374,146.341L98.754,146.341C99.353,146.341 99.877,146.658 100.327,147.293L103.752,152.057C104.015,152.431 104.052,152.824 103.865,153.235L101.225,157.047C100.776,157.683 100.252,158 99.653,158L92.465,158L92.465,155.309L96.059,155.309C96.657,155.309 97.145,155.084 97.519,154.636L98.474,153.01C98.661,152.749 98.661,152.487 98.474,152.226L96.676,149.648C96.349,149.236 95.843,149.031 95.16,149.031L92.69,149.031L87.073,158L81.682,158L87.298,149.031L83.479,149.031ZM98.754,143.65L102.348,143.65L106.111,148.919L104.595,151.722L98.754,143.65ZM103.416,143.65L109.537,143.65L106.673,148.133L103.416,143.65Z" style="fill:rgb(204,204,204);fill-rule:nonzero;"/>
            <path id="path3069" d="M118.522,158L118.522,143.65L123.913,143.65L123.913,147.237L132.898,147.237C133.498,147.237 134.003,147.555 134.415,148.19L137.391,152.618L132,152.618L130.877,150.824C130.428,150.226 129.903,149.927 129.305,149.927L123.913,149.927L123.913,158L118.522,158ZM129.305,146.341L127.508,143.65L131.102,143.65L132.898,146.341L129.305,146.341ZM133.797,146.341L132,143.65L135.594,143.65L137.391,146.341L133.797,146.341Z" style="fill:rgb(204,204,204);fill-rule:nonzero;"/>
            <path id="path3071" d="M139.188,146.341L139.188,143.65L158.058,143.65L158.058,146.341L139.188,146.341ZM139.188,149.927L139.188,147.237L158.058,147.237L158.058,149.927C158.058,150.526 157.927,151.105 157.665,151.666L154.913,157.159C154.613,157.719 154.164,158 153.565,158L141.884,158L141.884,155.309L149.072,155.309C149.671,155.309 150.139,155.011 150.476,154.412L152.667,149.927L139.188,149.927Z" style="fill:rgb(204,204,204);fill-rule:nonzero;"/>
            <path id="path3073" d="M159.855,149.031L159.855,146.341L172.828,146.341C173.464,146.341 173.95,146.041 174.288,145.443L175.13,143.65L180.521,143.65L178.724,147.237C178.125,148.433 177.227,149.031 176.029,149.031L172.434,149.031L172.434,158L167.043,158L167.043,149.031L159.855,149.031Z" style="fill:rgb(204,204,204);fill-rule:nonzero;"/>
            <path id="path3075" d="M199.84,155.084L198.155,157.103C197.78,157.701 197.294,158 196.695,158L182.318,158L182.318,155.309L192.202,155.309C192.68,155.309 193.11,155.011 193.494,154.412L193.999,153.557L193.999,146.341L182.318,146.341L182.318,143.65L200.289,143.65L200.289,153.515C200.289,154.113 200.139,154.636 199.84,155.084ZM202.086,149.031L204.782,143.65L208.376,143.65L205.68,149.031L202.086,149.031ZM201.187,149.031L201.187,143.65L203.883,143.65L201.187,149.031Z" style="fill:rgb(204,204,204);fill-rule:nonzero;"/>
        </g>
    </g>
</svg>
